X: 19957
T: Jiggy
R: jig
M: 6/8
K: Eminor
A|BEE dBA|FAB D3|A,B,D FED|FEE E3|B,DE B3|gfe d3|(BdB)
f|gfe agf|gfe e3|BEE FED|A,B,D E3|gfe agf|
BFA D3|A,B,D FED|FEE E2||

